svg/part/skull_line.svg

<?xml version="1.0" encoding="UTF-8"?>
<svg width="24px" height="24px" viewBox="0 0 24 24" version="1.1" xmlns="http://www.w3.org/2000/svg" xmlns:xlink="http://www.w3.org/1999/xlink">
    <title>skull_line</title>
    <g id="Icon" stroke="none" stroke-width="1" fill="none" fill-rule="evenodd">
        <g id="Part" transform="translate(-192.000000, -192.000000)">
            <g id="skull_line" transform="translate(192.000000, 192.000000)">
                <path d="M24,0 L24,24 L0,24 L0,0 L24,0 Z M12.5935,23.2578 L12.5819,23.2595 L12.5109,23.295 L12.4919,23.2987 L12.4767,23.295 L12.4057,23.2595 C12.3958,23.2564 12.387,23.259 12.3821,23.2649 L12.378,23.2758 L12.3609,23.7031 L12.3659,23.7235 L12.3769,23.7357 L12.4805,23.8097 L12.4953,23.8136 L12.5071,23.8097 L12.6107,23.7357 L12.6233,23.7197 L12.6267,23.7031 L12.6096,23.2758 C12.6076,23.2657 12.601,23.2593 12.5935,23.2578 Z M12.8584,23.1453 L12.8445,23.1473 L12.6598,23.2397 L12.6499,23.2499 L12.6472,23.2611 L12.6651,23.6906 L12.6699,23.7034 L12.6784,23.7105 L12.8793,23.8032 C12.8914,23.8069 12.9022,23.803 12.9078,23.7952 L12.9118,23.7812 L12.8777,23.1665 C12.8753,23.1546 12.8674,23.147 12.8584,23.1453 Z M12.143,23.1473 C12.1332,23.1424 12.1222,23.1453 12.1156,23.1526 L12.1099,23.1665 L12.0758,23.7812 C12.0751,23.7927 12.0828,23.8019 12.0926,23.8046 L12.1083,23.8032 L12.3092,23.7105 L12.3186,23.7024 L12.3225,23.6906 L12.3404,23.2611 L12.3372,23.2485 L12.3278,23.2397 L12.143,23.1473 Z" id="MingCute" fill-rule="nonzero"></path>
                <path d="M12,2 C16.9706,2 21,6.02944 21,11 C21,13.9004 19.6269,16.4805 17.4995,18.1248 C17.1607,18.3866 17,18.7156 17,19 C17,20.1046 16.1046,21 15,21 L9,21 C7.89543,21 7,20.1046 7,19 C7,18.7156 6.83927,18.3866 6.50052,18.1248 C4.37306,16.4805 3,13.9004 3,11 C3,6.02944 7.02944,2 12,2 Z M12,4 C8.13401,4 5,7.13401 5,11 C5,13.16085 5.97812651,15.0929259 7.51938661,16.378339 L7.72358,16.5423 C8.43299,17.0906 9,17.9596 9,19 L9.75,19 L9.75,18 C9.75,17.4477 10.1977,17 10.75,17 C11.3023,17 11.75,17.4477 11.75,18 L11.75,19 L12.25,19 L12.25,18 C12.25,17.4477 12.6977,17 13.25,17 C13.8023,17 14.25,17.4477 14.25,18 L14.25,19 L15,19 C15,18.02896 15.49392,17.2072284 16.1365445,16.6561918 L16.2764,16.5423 C17.935,15.2605 19,13.2548 19,11 C19,7.13401 15.866,4 12,4 Z M8.5,9 C9.88071,9 11,10.1193 11,11.5 C11,12.8807 9.88071,14 8.5,14 C7.11929,14 6,12.8807 6,11.5 C6,10.1193 7.11929,9 8.5,9 Z M15.5,9 C16.8807,9 18,10.1193 18,11.5 C18,12.8807 16.8807,14 15.5,14 C14.1193,14 13,12.8807 13,11.5 C13,10.1193 14.1193,9 15.5,9 Z M8.5,11 C8.22386,11 8,11.2239 8,11.5 C8,11.7761 8.22386,12 8.5,12 C8.77614,12 9,11.7761 9,11.5 C9,11.2239 8.77614,11 8.5,11 Z M15.5,11 C15.2239,11 15,11.2239 15,11.5 C15,11.7761 15.2239,12 15.5,12 C15.7761,12 16,11.7761 16,11.5 C16,11.2239 15.7761,11 15.5,11 Z" id="形状" fill="#09244B"></path>
            </g>
        </g>
    </g>
</svg>

<svg xmlns="http://www.w3.org/2000/svg" width="24" height="24"><g fill="none" fill-rule="evenodd"><path d="M24 0v24H0V0h24ZM12.594 23.258l-.012.002-.071.035-.02.004-.014-.004-.071-.036c-.01-.003-.019 0-.024.006l-.004.01-.017.428.005.02.01.013.104.074.015.004.012-.004.104-.074.012-.016.004-.017-.017-.427c-.002-.01-.009-.017-.016-.018Zm.264-.113-.014.002-.184.093-.01.01-.003.011.018.43.005.012.008.008.201.092c.012.004.023 0 .029-.008l.004-.014-.034-.614c-.003-.012-.01-.02-.02-.022Zm-.715.002a.023.023 0 0 0-.027.006l-.006.014-.034.614c0 .012.007.02.017.024l.015-.002.201-.093.01-.008.003-.011.018-.43-.003-.012-.01-.01-.184-.092Z"/><path fill="#09244B" d="M12 2a9 9 0 0 1 5.5 16.125c-.34.262-.5.59-.5.875a2 2 0 0 1-2 2H9a2 2 0 0 1-2-2c0-.284-.16-.613-.5-.875A9 9 0 0 1 12 2Zm0 2a7 7 0 0 0-4.48 12.378l.204.164C8.433 17.091 9 17.96 9 19h.75v-1a1 1 0 1 1 2 0v1h.5v-1a1 1 0 1 1 2 0v1H15c0-.971.494-1.793 1.137-2.344l.14-.114A7 7 0 0 0 12 4ZM8.5 9a2.5 2.5 0 1 1 0 5 2.5 2.5 0 0 1 0-5Zm7 0a2.5 2.5 0 1 1 0 5 2.5 2.5 0 0 1 0-5Zm-7 2a.5.5 0 1 0 0 1 .5.5 0 0 0 0-1Zm7 0a.5.5 0 1 0 0 1 .5.5 0 0 0 0-1Z"/></g></svg>
